config/includes.chroot/usr/share/icons/Tela-circle/scalable/apps/swell-foop.svg

<svg width="64" height="64" version="1.1" viewBox="0 0 16.933 16.933" xmlns="http://www.w3.org/2000/svg" xmlns:xlink="http://www.w3.org/1999/xlink">
 <path transform="scale(.26458)" d="m32 5a27 27 0 0 0-27 27 27 27 0 0 0 27 27 27 27 0 0 0 27-27 27 27 0 0 0-27-27z" fill="#4d4d4d" stroke-width="4.3927" style="paint-order:markers stroke fill"/>
 <path transform="scale(.26458)" d="m32.002 5v26.998h26.998a27 27 0 0 0-26.998-26.998zm-27.002 27.004a27 27 0 0 0 27 26.996 27 27 0 0 0 0.001953 0v-26.996h-27.002z" fill="#1f8fd7" stroke-width="4.3927" style="paint-order:markers stroke fill"/>
 <g fill="#fff" stroke-width="1.0005">
  <path d="m5.6889 3.7214 0.572 1.2199 1.2792 0.19552-0.9256 0.94848 0.2184 1.3416-1.144-0.6344-1.145 0.6344 0.2184-1.3416-0.9256-0.94848 1.2792-0.19552z"/>
  <circle cx="11.112" cy="5.8207" r="1.587"/>
  <path d="m9.5248 9.5248h3.1751v3.1751h-3.1751z"/>
  <circle cx="5.8207" cy="11.112" r="1.587"/>
 </g>
</svg>

<svg xmlns="http://www.w3.org/2000/svg" width="64" height="64" viewBox="0 0 16.933 16.933"><path fill="#4d4d4d" d="M32 5A27 27 0 0 0 5 32a27 27 0 0 0 27 27 27 27 0 0 0 27-27A27 27 0 0 0 32 5z" style="paint-order:markers stroke fill" transform="scale(.26458)"/><path fill="#1f8fd7" d="M32.002 5v26.998H59A27 27 0 0 0 32.002 5zM5 32.004A27 27 0 0 0 32 59a27 27 0 0 0 .002 0V32.004H5z" style="paint-order:markers stroke fill" transform="scale(.26458)"/><g fill="#fff"><path d="m5.689 3.721.572 1.22 1.28.196-.926.948.218 1.342-1.144-.634-1.145.634.218-1.342-.925-.948 1.279-.196z"/><circle cx="11.112" cy="5.821" r="1.587"/><path d="M9.525 9.525H12.7V12.7H9.525z"/><circle cx="5.821" cy="11.112" r="1.587"/></g></svg>
